icon-themes/sifr_svg/cmd/lc_zoompanning.svg

<svg viewBox="0 0 24 24" xmlns="http://www.w3.org/2000/svg"><path d="m12 3-4 4h3v4h-4v-3l-4 4 4 4v-3h4v4h-3l4 4 4-4h-3v-4h4v3l4-4-4-4v3h-4v-4h3z" fill="#555753"/></svg>

<svg xmlns="http://www.w3.org/2000/svg" viewBox="0 0 24 24">
 <path
     style="fill:#555753"
     d="M 12 3 L 8 7 L 11 7 L 11 11 L 7 11 L 7 8 L 3 12 L 7 16 L 7 13 L 11 13 L 11 17 L 8 17 L 12 21 L 16 17 L 13 17 L 13 13 L 17 13 L 17 16 L 21 12 L 17 8 L 17 11 L 13 11 L 13 7 L 16 7 L 12 3 z "
     />
 </svg>
